public/svg/cloud.svg

<svg xmlns="http://www.w3.org/2000/svg" width="56" height="56" viewBox="0 0 56 56" fill="none">
<path d="M16.3337 41.9998C13.4224 41.9998 10.6303 40.8936 8.57161 38.9244C6.51298 36.9553 5.35645 34.2846 5.35645 31.4998C5.35645 28.715 6.51298 26.0443 8.57161 24.0752C10.6303 22.1061 13.4224 20.9998 16.3337 20.9998C17.0213 17.9366 19.0328 15.2446 21.9258 13.5161C23.3582 12.6603 24.9639 12.0667 26.6512 11.7694C28.3385 11.4721 30.0743 11.4767 31.7596 11.7831C33.4449 12.0896 35.0467 12.6917 36.4734 13.5553C37.9001 14.4188 39.1239 15.5268 40.0748 16.816C41.0258 18.1052 41.6853 19.5503 42.0156 21.0689C42.346 22.5874 42.3408 24.1497 42.0004 25.6665H44.3337C46.4997 25.6665 48.5769 26.5269 50.1084 28.0584C51.64 29.59 52.5004 31.6672 52.5004 33.8331C52.5004 35.9991 51.64 38.0763 50.1084 39.6078C48.5769 41.1394 46.4997 41.9998 44.3337 41.9998H16.3337Z" stroke="#1B5BF7" stroke-width="3.5" stroke-linecap="round" stroke-linejoin="round"/>
</svg>

<svg xmlns="http://www.w3.org/2000/svg" width="56" height="56" fill="none" xmlns:v="https://vecta.io/nano"><path d="M16.334 42c-2.911 0-5.703-1.106-7.762-3.075s-3.215-4.64-3.215-7.425 1.157-5.456 3.215-7.425S13.422 21 16.334 21c.688-3.063 2.699-5.755 5.592-7.484 1.432-.856 3.038-1.449 4.725-1.747a14.52 14.52 0 0 1 5.108.014c1.685.307 3.287.909 4.714 1.772s2.651 1.971 3.601 3.261 1.61 2.734 1.941 4.253A10.63 10.63 0 0 1 42 25.667h2.333c2.166 0 4.243.86 5.775 2.392s2.392 3.609 2.392 5.775-.86 4.243-2.392 5.775S46.5 42 44.334 42h-28z" stroke="#1b5bf7" stroke-width="3.5" stroke-linejoin="round"/></svg>
